X:190
T:La Marche Printanire
C:Richard Fort
Z:robin.beech@mcgill.ca
R:jig
M:6/8
L:1/8
K:D
A |: f2B gag | f2d Aed | cec Ace | dfb a2A |
f2B gag | f2d Aed | cec ABc | dAF D2A ::
DFA dAF | EGc ecA | dfe dcB | Acd ecA |
DFA dAF | EGc ecA | GBA GFE | DFA d2A :|
